glitch-avatars-svg/base_avatar/Avatar.fla/placeholder symbols 2/Avatar_backLegLowerLeft2.svg

<?xml version="1.0" encoding="UTF-8" standalone="no"?>
<!-- Generator: flash2svg, http://dissentgraphics.com/tools/flash2svg -->

<svg
   xmlns:dc="http://purl.org/dc/elements/1.1/"
   xmlns:cc="http://creativecommons.org/ns#"
   xmlns:rdf="http://www.w3.org/1999/02/22-rdf-syntax-ns#"
   xmlns:svg="http://www.w3.org/2000/svg"
   xmlns="http://www.w3.org/2000/svg"
   xmlns:sodipodi="http://sodipodi.sourceforge.net/DTD/sodipodi-0.dtd"
   xmlns:inkscape="http://www.inkscape.org/namespaces/inkscape"
   id="Avatar"
   image-rendering="auto"
   version="1.1"
   x="0px"
   y="0px"
   width="10.424932"
   height="14.912277"
   viewBox="0 0 10.424932 14.912277"
   inkscape:version="0.48.4 r9939"
   sodipodi:docname="Avatar_backLegLowerLeft2.svg">
  <metadata
     id="metadata3241">
    <rdf:RDF>
      <cc:Work
         rdf:about="">
        <dc:format>image/svg+xml</dc:format>
        <dc:type
           rdf:resource="http://purl.org/dc/dcmitype/StillImage" />
      </cc:Work>
    </rdf:RDF>
  </metadata>
  <sodipodi:namedview
     pagecolor="#ffffff"
     bordercolor="#666666"
     borderopacity="1"
     objecttolerance="10"
     gridtolerance="10"
     guidetolerance="10"
     inkscape:pageopacity="0"
     inkscape:pageshadow="2"
     inkscape:window-width="640"
     inkscape:window-height="480"
     id="namedview3239"
     showgrid="false"
     fit-margin-top="0"
     fit-margin-left="0"
     fit-margin-right="0"
     fit-margin-bottom="0"
     inkscape:zoom="1.8730159"
     inkscape:cx="37.0625"
     inkscape:cy="-49.637722"
     inkscape:window-x="0"
     inkscape:window-y="0"
     inkscape:window-maximized="0"
     inkscape:current-layer="Avatar" />
  <defs
     id="defs3218" />
  <g
     id="backLegLowerLeft3"
     overflow="visible"
     style="overflow:visible"
     transform="translate(3.0625,1.55)">
    <g
       id="backLegLowerLeft2_4">
      <g
         id="element2">
        <path
           id="path19"
           d="m 3.15,-0.8 q -0.048,0 -0.1,0 c 0.45,0.45 0.85,0.95 1.1,1.5 0.1,0.25 0.2,0.55 0.3,0.8 0.55,0.75 1,1.65 1.35,2.7 0.05,0.15 0.1,0.35 0.15,0.55 0.15,0.4 0.25,0.8 0.4,1.2 C 7.15,8.1 7.1,10 6.2,11.75 6.15,11.8 6.15,11.8 6.15,11.8 l 0,-0.05 C 5.95,12.05 5.65,12.25 5.3,12.4 4.25,12.75 3.15,12.9 2.1,12.75 1.45,12.4 0.65,11.4 -0.3,9.8 -1.2,8.25 -1.9,6.05 -2.4,3.2 -2.45,3.15 -2.45,3.05 -2.45,3 -2.4,3.05 -2.35,3.1 -2.3,3.15 -2.35,2.6 -2.4,2.1 -2.4,1.55 c -0.05,-0.75 0.1,-1.3 0.35,-1.7 0.05,-0.1 0.15,-0.2 0.2,-0.25 l 0,-0.025 0,-0.025 C -1.8,-0.6 -1.75,-0.7 -1.7,-0.8 l -0.025,-0.025 0.025,0 0,0.025 c -0.05,0 -0.15,0 -0.2,0 l 0.05,0.025 0,0.025 c -0.35,0.1 -0.6,0.3 -0.75,0.65 -0.45,0.95 -0.55,1.8 -0.2,2.5 0.05,0.6 0.15,1.25 0.3,2 -0.15,-0.5 -0.3,-1 -0.45,-1.45 0,0.65 0.1,1.4 0.25,2.25 0.35,1.9 0.95,3.55 1.8,5 0,-0.05 0,-0.1 -0.05,-0.15 0.85,1.4 2.2,2.5 4.15,3.3 0,0 0,0 0.05,0 C 4.15,13.4 4.85,13.3 5.35,13 5.3,13.05 5.25,13.1 5.2,13.15 6.45,12.7 7.15,11.7 7.2,10.25 7.35,7.8 6.9,5.45 5.9,3.2 5.85,3.05 5.8,2.9 5.75,2.75 5.3,1.3 4.4,0.1 3.15,-0.8 z"
           inkscape:connector-curvature="0"
           style="fill:#663300" />
        <path
           id="path20"
           d="m 3.05,-0.8 c -0.15,0 -0.3,0 -0.5,-0.05 -1.3,-0.15 -2.6,-0.15 -3.85,0 l -0.125,0 0.025,0 c -0.1,0 -0.2,0 -0.3,0.05 -0.05,0.1 -0.1,0.2 -0.15,0.35 l 0,0.025 0,0.025 c -0.05,0.05 -0.15,0.15 -0.2,0.25 -0.25,0.4 -0.4,0.95 -0.35,1.7 0,0.55 0.05,1.05 0.1,1.6 l -0.125,0.05 0.025,0 c 0.5,2.85 1.2,5.05 2.1,6.6 0.95,1.6 1.75,2.6 2.4,2.95 1.05,0.15 2.15,0 3.2,-0.35 0.35,-0.15 0.65,-0.35 0.85,-0.65 l 0.025,0 0.025,0 C 7.1,10 7.15,8.1 6.35,5.95 6.2,5.55 6.1,5.15 5.95,4.75 5.9,4.55 5.85,4.35 5.8,4.2 5.45,3.15 5,2.25 4.45,1.5 4.35,1.25 4.25,0.95 4.15,0.7 3.9,0.15 3.5,-0.35 3.05,-0.8 z"
           inkscape:connector-curvature="0"
           style="fill:#ffffcc" />
      </g>
      <animate
         attributeName="display"
         begin="0s"
         repeatCount="indefinite"
         dur="0.167s"
         keyTimes="0;0.798;1"
         values="none;inline;none"
         id="animate3225" />
    </g>
    <g
       id="backLegLowerLeft2_2">
      <g
         id="element1">
        <path
           id="path10"
           d="M 1.775,-1.075 Q 1.719,-1.088 1.65,-1.1 c -1.05,-0.2 -2.1,-0.2 -3.05,0.05 0.15,0.05 0.3,0.05 0.45,0.1 -0.25,0.05 -0.55,0.15 -0.8,0.25 -0.05,0 -0.05,0 -0.05,0.05 -0.15,0.15 -0.25,0.3 -0.35,0.45 -0.15,0.25 -0.25,0.45 -0.3,0.7 -0.1,0.1 -0.2,0.2 -0.25,0.3 l 0,-0.05 c -0.15,0.75 0,1.6 0.45,2.55 0.3,0.65 0.4,1.3 0.3,1.95 L -2.025,5.275 -2,5.3 c 0.45,1.5 0.95,3 1.5,4.45 0.05,0.1 0.05,0.2 0.1,0.25 0.15,0.15 0.25,0.25 0.35,0.4 L 0,10.35 c 0.75,1.2 1.85,1.9 3.3,2.1 0.4,0.05 0.8,0.1 1.25,0.15 C 5.7,12.2 6.5,11.35 6.9,10 7.1,9.45 7.1,8.85 6.9,8.3 6.5,6.85 6.1,5.5 5.75,4.15 l 0,-0.025 -0.1,0.025 C 5.25,2.5 4.65,1.3 3.8,0.55 3.7,0.3 3.55,0.1 3.4,-0.1 3.15,-0.4 2.9,-0.65 2.65,-0.9 2.55,-0.95 2.45,-0.95 2.35,-0.95 l 0,-0.025 -0.575,-0.1 z"
           inkscape:connector-curvature="0"
           style="fill:#ffffcc" />
        <path
           id="path11"
           d="m 2.8,-0.9 c -0.05,0 -0.1,0 -0.15,0 0.25,0.25 0.5,0.5 0.75,0.8 C 3.55,0.1 3.7,0.3 3.8,0.55 4.65,1.3 5.25,2.5 5.65,4.15 5.7,4.05 5.7,3.95 5.7,3.8 5.7,3.9 5.7,4 5.75,4.15 6.1,5.5 6.5,6.85 6.9,8.3 7.1,8.85 7.1,9.45 6.9,10 6.5,11.35 5.7,12.2 4.55,12.6 4.1,12.55 3.7,12.5 3.3,12.45 1.85,12.25 0.75,11.55 0,10.35 0,10.4 0,10.45 0,10.5 -0.05,10.45 -0.05,10.45 -0.05,10.4 -0.15,10.25 -0.25,10.15 -0.4,10 -0.45,9.95 -0.45,9.85 -0.5,9.75 -1.05,8.3 -1.55,6.8 -2,5.3 -2.05,5.15 -2.05,5.05 -2.1,4.9 -2.05,5 -2,5.1 -1.95,5.25 -1.85,4.6 -1.95,3.95 -2.25,3.3 -2.7,2.35 -2.85,1.5 -2.7,0.75 l 0,0.05 c 0.05,-0.1 0.15,-0.2 0.25,-0.3 0.05,-0.25 0.15,-0.45 0.3,-0.7 0.1,-0.15 0.2,-0.3 0.35,-0.45 -0.05,0 -0.15,0 -0.2,0.05 0.05,-0.05 0.05,-0.05 0.1,-0.1 -0.8,0.15 -1.2,0.6 -1.15,1.45 0,0.55 0.05,1.1 0.15,1.6 -0.1,0.35 -0.1,0.75 0.05,1.3 0.15,0.5 0.4,1.7 0.75,3.6 0.35,1.9 1.5,3.75 3.4,5.55 0.05,-0.05 0.05,-0.1 0,-0.15 -0.3,-0.35 -0.6,-0.7 -0.85,-1.1 0.05,0.05 0.05,0.05 0.1,0.1 0.1,0.1 0.2,0.2 0.3,0.3 1.05,1 2.2,1.4 3.35,1.15 0.75,0.05 1.5,-0.25 2.15,-0.9 C 6.7,11.85 6.95,11.45 7.05,11 7.65,8.15 7.15,5.45 5.6,2.9 5.55,2.7 5.5,2.5 5.4,2.25 4.85,0.85 4,-0.2 2.8,-0.9 z"
           inkscape:connector-curvature="0"
           style="fill:#663300" />
      </g>
      <animate
         attributeName="display"
         begin="0s"
         repeatCount="indefinite"
         dur="0.167s"
         keyTimes="0;0.399;0.798;1"
         values="none;inline;none;none"
         id="animate3231" />
    </g>
    <g
       id="backLegLowerLeft2_0">
      <g
         id="element">
        <path
           id="path"
           d="m 0.95,-1.55 q -0.2,0.05 -0.45,0 c -0.1,0 -0.15,0.05 -0.2,0.15 -0.05,0 -0.05,0 -0.05,0.05 l 0,0.05 c -0.1,0 -0.2,0 -0.3,0.05 -0.6,0.05 -1.15,0.2 -1.65,0.45 -0.1,0.1 -0.15,0.2 -0.2,0.35 -0.45,0.55 -0.6,1.2 -0.55,1.95 0,0.3 0,0.6 0.05,0.9 0,0.05 0,0.05 0,0.1 0.15,0.55 0.35,1.05 0.6,1.5 -0.35,-0.25 -0.6,-0.55 -0.8,-0.9 0.45,2.8 1.5,5.4 3.1,7.75 0.3,0.45 0.65,0.9 1.05,1.3 1.75,0.85 3.2,0.6 4.4,-0.75 0.2,-0.25 0.4,-0.4 0.6,-0.55 C 6.8,10.25 6.85,9.6 6.7,8.85 6.65,8.75 6.65,8.65 6.65,8.55 6.4,7.75 6.2,6.95 6,6.1 l -0.05,0 C 5.6,4.35 5.15,2.75 4.6,1.3 4.25,0.35 3.8,-0.3 3.25,-0.6 3.3,-0.65 3.4,-0.65 3.45,-0.65 3.25,-0.8 3.05,-0.95 2.8,-1.1 2.65,-1.15 2.45,-1.2 2.3,-1.2 2.05,-1.25 1.75,-1.25 1.45,-1.3 l -0.025,0 0.025,0 C 1.4,-1.35 1.3,-1.35 1.25,-1.4 1.15,-1.45 1.05,-1.5 0.95,-1.55 z M 0.7,-1.3 c 0.25,0.05 0.55,0.1 0.8,0.2 -0.3,-0.1 -0.6,-0.15 -0.9,-0.2 0.05,0 0.05,0 0.1,0 z"
           inkscape:connector-curvature="0"
           style="fill:#ffffcc" />
        <path
           id="path1"
           d="m 0.7,-1.3 c -0.05,0 -0.05,0 -0.1,0 0.3,0.05 0.6,0.1 0.9,0.2 C 1.25,-1.2 0.95,-1.25 0.7,-1.3 z m 2.75,0.65 c -0.05,0 -0.15,0 -0.2,0.05 0.55,0.3 1,0.95 1.35,1.9 0.55,1.45 1,3.05 1.35,4.8 0,-0.05 0,-0.15 0,-0.2 C 6,5.95 6,6.05 6,6.1 c 0.2,0.85 0.4,1.65 0.65,2.45 0,0.1 0,0.2 0.05,0.3 0.15,0.75 0.1,1.4 -0.15,2 C 6.35,11 6.15,11.15 5.95,11.4 4.75,12.75 3.3,13 1.55,12.15 1.15,11.75 0.8,11.3 0.5,10.85 -1.1,8.5 -2.15,5.9 -2.6,3.1 -2.4,3.45 -2.15,3.75 -1.8,4 -2.05,3.55 -2.25,3.05 -2.4,2.5 c 0,-0.05 0,-0.05 0,-0.1 -0.05,-0.3 -0.05,-0.6 -0.05,-0.9 -0.05,-0.75 0.1,-1.4 0.55,-1.95 0.05,-0.15 0.1,-0.25 0.2,-0.35 -0.15,0.05 -0.35,0.15 -0.5,0.25 0.05,-0.05 0.05,-0.15 0.1,-0.2 -0.45,0.15 -0.7,0.5 -0.85,1.05 -0.15,0.75 -0.15,1.4 0,2 -0.15,0.85 -0.1,1.8 0.1,2.75 0.7,3.2 2.2,5.75 4.5,7.6 C 1.8,12.7 2,12.8 2.25,12.85 2.6,13 3,13.1 3.45,13.15 4.7,13.2 5.6,12.85 6.15,12.2 6.45,12.05 6.7,11.7 6.9,11.25 7.45,10 7.5,8.8 7.1,7.65 7.05,7.35 7,7.05 6.85,6.7 6.5,5.6 6.1,4.5 5.75,3.45 5.45,1.7 4.7,0.3 3.45,-0.65 z M 6,6.1 5.95,6.1 c 0,-0.05 0,-0.15 0,-0.2 C 6,5.95 6,6.05 6,6.1 z"
           inkscape:connector-curvature="0"
           style="fill:#663300" />
      </g>
      <animate
         attributeName="display"
         begin="0s"
         repeatCount="indefinite"
         dur="0.167s"
         keyTimes="0;0.399;1"
         values="inline;none;none"
         id="animate3237" />
    </g>
  </g>
</svg>

<?xml version="1.0" encoding="utf-8"?>
<!-- Generator: flash2svg, http://dissentgraphics.com/tools/flash2svg -->
<svg xmlns:xlink="http://www.w3.org/1999/xlink" id="Avatar" image-rendering="auto" baseProfile="basic" version="1.1" x="0px" y="0px" width="68" height="126" xmlns="http://www.w3.org/2000/svg" viewBox="0 0 68 126">
  <defs/>
  <g id="backLegLowerLeft3" overflow="visible">
    <g id="backLegLowerLeft2_4">
      <g id="element2">
        <path id="path19" fill="#630" d="M3.15,-0.8 Q3.102,-0.8 3.05,-0.8 C3.5,-0.35 3.9,0.15 4.15,0.7 4.25,0.95 4.35,1.25 4.45,1.5 5,2.25 5.45,3.15 5.8,4.2 5.85,4.35 5.9,4.55 5.95,4.75 6.1,5.15 6.2,5.55 6.35,5.95 7.15,8.1 7.1,10 6.2,11.75 6.15,11.8 6.15,11.8 6.15,11.8 L6.15,11.75 C5.95,12.05 5.65,12.25 5.3,12.4 4.25,12.75 3.15,12.9 2.1,12.75 1.45,12.4 0.65,11.4 -0.3,9.8 -1.2,8.25 -1.9,6.05 -2.4,3.2 -2.45,3.15 -2.45,3.05 -2.45,3 -2.4,3.05 -2.35,3.1 -2.3,3.15 -2.35,2.6 -2.4,2.1 -2.4,1.55 -2.45,0.8 -2.3,0.25 -2.05,-0.15 -2,-0.25 -1.9,-0.35 -1.85,-0.4 L-1.85,-0.425 L-1.85,-0.45 C-1.8,-0.6 -1.75,-0.7 -1.7,-0.8 L-1.725,-0.825 L-1.7,-0.825 L-1.7,-0.8 C-1.75,-0.8 -1.85,-0.8 -1.9,-0.8 L-1.85,-0.775 L-1.85,-0.75 C-2.2,-0.65 -2.45,-0.45 -2.6,-0.1 -3.05,0.85 -3.15,1.7 -2.8,2.4 -2.75,3 -2.65,3.65 -2.5,4.4 -2.65,3.9 -2.8,3.4 -2.95,2.95 -2.95,3.6 -2.85,4.35 -2.7,5.2 -2.35,7.1 -1.75,8.75 -0.9,10.2 -0.9,10.15 -0.9,10.1 -0.95,10.05 -0.1,11.45 1.25,12.55 3.2,13.35 3.2,13.35 3.2,13.35 3.25,13.35 4.15,13.4 4.85,13.3 5.35,13 5.3,13.05 5.25,13.1 5.2,13.15 6.45,12.7 7.15,11.7 7.2,10.25 7.35,7.8 6.9,5.45 5.9,3.2 5.85,3.05 5.8,2.9 5.75,2.75 5.3,1.3 4.4,0.1 3.15,-0.8z"/>
        <path id="path20" fill="#FFC" d="M3.05,-0.8 C2.9,-0.8 2.75,-0.8 2.55,-0.85 1.25,-1 -0.05,-1 -1.3,-0.85 L-1.425,-0.85 L-1.4,-0.85 C-1.5,-0.85 -1.6,-0.85 -1.7,-0.8 -1.75,-0.7 -1.8,-0.6 -1.85,-0.45 L-1.85,-0.425 L-1.85,-0.4 C-1.9,-0.35 -2,-0.25 -2.05,-0.15 -2.3,0.25 -2.45,0.8 -2.4,1.55 -2.4,2.1 -2.35,2.6 -2.3,3.15 L-2.425,3.2 L-2.4,3.2 C-1.9,6.05 -1.2,8.25 -0.3,9.8 0.65,11.4 1.45,12.4 2.1,12.75 3.15,12.9 4.25,12.75 5.3,12.4 5.65,12.25 5.95,12.05 6.15,11.75 L6.175,11.75 L6.2,11.75 C7.1,10 7.15,8.1 6.35,5.95 6.2,5.55 6.1,5.15 5.95,4.75 5.9,4.55 5.85,4.35 5.8,4.2 5.45,3.15 5,2.25 4.45,1.5 4.35,1.25 4.25,0.95 4.15,0.7 3.9,0.15 3.5,-0.35 3.05,-0.8z"/>
      </g>
      <animate attributeName="display" begin="0s" repeatCount="indefinite" dur="0.167s" keyTimes="0;0.798;1" values="none;inline;none"/>
    </g>
    <g id="backLegLowerLeft2_2">
      <g id="element1">
        <path id="path10" fill="#FFC" d="M1.775,-1.075 Q1.719,-1.088 1.65,-1.1 C0.6,-1.3 -0.45,-1.3 -1.4,-1.05 -1.25,-1 -1.1,-1 -0.95,-0.95 -1.2,-0.9 -1.5,-0.8 -1.75,-0.7 -1.8,-0.7 -1.8,-0.7 -1.8,-0.65 -1.95,-0.5 -2.05,-0.35 -2.15,-0.2 -2.3,0.05 -2.4,0.25 -2.45,0.5 -2.55,0.6 -2.65,0.7 -2.7,0.8 L-2.7,0.75 C-2.85,1.5 -2.7,2.35 -2.25,3.3 -1.95,3.95 -1.85,4.6 -1.95,5.25 L-2.025,5.275 L-2,5.3 C-1.55,6.8 -1.05,8.3 -0.5,9.75 -0.45,9.85 -0.45,9.95 -0.4,10 -0.25,10.15 -0.15,10.25 -0.05,10.4 L0,10.35 C0.75,11.55 1.85,12.25 3.3,12.45 3.7,12.5 4.1,12.55 4.55,12.6 5.7,12.2 6.5,11.35 6.9,10 7.1,9.45 7.1,8.85 6.9,8.3 6.5,6.85 6.1,5.5 5.75,4.15 L5.75,4.125 L5.65,4.15 C5.25,2.5 4.65,1.3 3.8,0.55 3.7,0.3 3.55,0.1 3.4,-0.1 3.15,-0.4 2.9,-0.65 2.65,-0.9 2.55,-0.95 2.45,-0.95 2.35,-0.95 L2.35,-0.975 L1.775,-1.075z"/>
        <path id="path11" fill="#630" d="M2.8,-0.9 C2.75,-0.9 2.7,-0.9 2.65,-0.9 2.9,-0.65 3.15,-0.4 3.4,-0.1 3.55,0.1 3.7,0.3 3.8,0.55 4.65,1.3 5.25,2.5 5.65,4.15 5.7,4.05 5.7,3.95 5.7,3.8 5.7,3.9 5.7,4 5.75,4.15 6.1,5.5 6.5,6.85 6.9,8.3 7.1,8.85 7.1,9.45 6.9,10 6.5,11.35 5.7,12.2 4.55,12.6 4.1,12.55 3.7,12.5 3.3,12.45 1.85,12.25 0.75,11.55 0,10.35 0,10.4 0,10.45 0,10.5 -0.05,10.45 -0.05,10.45 -0.05,10.4 -0.15,10.25 -0.25,10.15 -0.4,10 -0.45,9.95 -0.45,9.85 -0.5,9.75 -1.05,8.3 -1.55,6.8 -2,5.3 -2.05,5.15 -2.05,5.05 -2.1,4.9 -2.05,5 -2,5.1 -1.95,5.25 -1.85,4.6 -1.95,3.95 -2.25,3.3 -2.7,2.35 -2.85,1.5 -2.7,0.75 L-2.7,0.8 C-2.65,0.7 -2.55,0.6 -2.45,0.5 -2.4,0.25 -2.3,0.05 -2.15,-0.2 -2.05,-0.35 -1.95,-0.5 -1.8,-0.65 -1.85,-0.65 -1.95,-0.65 -2,-0.6 -1.95,-0.65 -1.95,-0.65 -1.9,-0.7 -2.7,-0.55 -3.1,-0.1 -3.05,0.75 -3.05,1.3 -3,1.85 -2.9,2.35 -3,2.7 -3,3.1 -2.85,3.65 -2.7,4.15 -2.45,5.35 -2.1,7.25 -1.75,9.15 -0.6,11 1.3,12.8 1.35,12.75 1.35,12.7 1.3,12.65 1,12.3 0.7,11.95 0.45,11.55 0.5,11.6 0.5,11.6 0.55,11.65 0.65,11.75 0.75,11.85 0.85,11.95 1.9,12.95 3.05,13.35 4.2,13.1 4.95,13.15 5.7,12.85 6.35,12.2 6.7,11.85 6.95,11.45 7.05,11 7.65,8.15 7.15,5.45 5.6,2.9 5.55,2.7 5.5,2.5 5.4,2.25 4.85,0.85 4,-0.2 2.8,-0.9z"/>
      </g>
      <animate attributeName="display" begin="0s" repeatCount="indefinite" dur="0.167s" keyTimes="0;0.399;0.798;1" values="none;inline;none;none"/>
    </g>
    <g id="backLegLowerLeft2_0">
      <g id="element">
        <path id="path" fill="#FFC" d="M0.95,-1.55 Q0.75,-1.5 0.5,-1.55 C0.4,-1.55 0.35,-1.5 0.3,-1.4 0.25,-1.4 0.25,-1.4 0.25,-1.35 L0.25,-1.3 C0.15,-1.3 0.05,-1.3 -0.05,-1.25 -0.65,-1.2 -1.2,-1.05 -1.7,-0.8 -1.8,-0.7 -1.85,-0.6 -1.9,-0.45 -2.35,0.1 -2.5,0.75 -2.45,1.5 -2.45,1.8 -2.45,2.1 -2.4,2.4 -2.4,2.45 -2.4,2.45 -2.4,2.5 -2.25,3.05 -2.05,3.55 -1.8,4 -2.15,3.75 -2.4,3.45 -2.6,3.1 -2.15,5.9 -1.1,8.5 0.5,10.85 0.8,11.3 1.15,11.75 1.55,12.15 3.3,13 4.75,12.75 5.95,11.4 6.15,11.15 6.35,11 6.55,10.85 6.8,10.25 6.85,9.6 6.7,8.85 6.65,8.75 6.65,8.65 6.65,8.55 6.4,7.75 6.2,6.95 6,6.1 L5.95,6.1 C5.6,4.35 5.15,2.75 4.6,1.3 4.25,0.35 3.8,-0.3 3.25,-0.6 3.3,-0.65 3.4,-0.65 3.45,-0.65 3.25,-0.8 3.05,-0.95 2.8,-1.1 2.65,-1.15 2.45,-1.2 2.3,-1.2 2.05,-1.25 1.75,-1.25 1.45,-1.3 L1.425,-1.3 L1.45,-1.3 C1.4,-1.35 1.3,-1.35 1.25,-1.4 1.15,-1.45 1.05,-1.5 0.95,-1.55z M0.7,-1.3 C0.95,-1.25 1.25,-1.2 1.5,-1.1 1.2,-1.2 0.9,-1.25 0.6,-1.3 0.65,-1.3 0.65,-1.3 0.7,-1.3z"/>
        <path id="path1" fill="#630" d="M0.7,-1.3 C0.65,-1.3 0.65,-1.3 0.6,-1.3 0.9,-1.25 1.2,-1.2 1.5,-1.1 1.25,-1.2 0.95,-1.25 0.7,-1.3z M3.45,-0.65 C3.4,-0.65 3.3,-0.65 3.25,-0.6 3.8,-0.3 4.25,0.35 4.6,1.3 5.15,2.75 5.6,4.35 5.95,6.1 5.95,6.05 5.95,5.95 5.95,5.9 6,5.95 6,6.05 6,6.1 6.2,6.95 6.4,7.75 6.65,8.55 6.65,8.65 6.65,8.75 6.7,8.85 6.85,9.6 6.8,10.25 6.55,10.85 6.35,11 6.15,11.15 5.95,11.4 4.75,12.75 3.3,13 1.55,12.15 1.15,11.75 0.8,11.3 0.5,10.85 -1.1,8.5 -2.15,5.9 -2.6,3.1 -2.4,3.45 -2.15,3.75 -1.8,4 -2.05,3.55 -2.25,3.05 -2.4,2.5 -2.4,2.45 -2.4,2.45 -2.4,2.4 -2.45,2.1 -2.45,1.8 -2.45,1.5 -2.5,0.75 -2.35,0.1 -1.9,-0.45 -1.85,-0.6 -1.8,-0.7 -1.7,-0.8 -1.85,-0.75 -2.05,-0.65 -2.2,-0.55 -2.15,-0.6 -2.15,-0.7 -2.1,-0.75 -2.55,-0.6 -2.8,-0.25 -2.95,0.3 -3.1,1.05 -3.1,1.7 -2.95,2.3 -3.1,3.15 -3.05,4.1 -2.85,5.05 -2.15,8.25 -0.65,10.8 1.65,12.65 1.8,12.7 2,12.8 2.25,12.85 2.6,13 3,13.1 3.45,13.15 4.7,13.2 5.6,12.85 6.15,12.2 6.45,12.05 6.7,11.7 6.9,11.25 7.45,10 7.5,8.8 7.1,7.65 7.05,7.35 7,7.05 6.85,6.7 6.5,5.6 6.1,4.5 5.75,3.45 5.45,1.7 4.7,0.3 3.45,-0.65z M6,6.1 L5.95,6.1 C5.95,6.05 5.95,5.95 5.95,5.9 6,5.95 6,6.05 6,6.1z"/>
      </g>
      <animate attributeName="display" begin="0s" repeatCount="indefinite" dur="0.167s" keyTimes="0;0.399;1" values="inline;none;none"/>
    </g>
  </g>
</svg>
